build/svg/cmd/32/quoteparastyle.svg

<?xml version="1.0" encoding="UTF-8" standalone="no"?>
<svg
   xmlns:dc="http://purl.org/dc/elements/1.1/"
   xmlns:cc="http://creativecommons.org/ns#"
   xmlns:rdf="http://www.w3.org/1999/02/22-rdf-syntax-ns#"
   xmlns:svg="http://www.w3.org/2000/svg"
   xmlns="http://www.w3.org/2000/svg"
   xmlns:sodipodi="http://sodipodi.sourceforge.net/DTD/sodipodi-0.dtd"
   xmlns:inkscape="http://www.inkscape.org/namespaces/inkscape"
   height="32"
   viewBox="0 0 32 32"
   width="32"
   version="1.1"
   id="svg8"
   sodipodi:docname="quoteparastyle.svg"
   inkscape:export-filename="/home/jupiter007/Libreoffice yaru theme fullcolor/build/cmd/32/quoteparastyle.png"
   inkscape:export-xdpi="96"
   inkscape:export-ydpi="96"
   inkscape:version="0.92.5 (2060ec1f9f, 2020-04-08)">
  <metadata
     id="metadata14">
    <rdf:RDF>
      <cc:Work
         rdf:about="">
        <dc:format>image/svg+xml</dc:format>
        <dc:type
           rdf:resource="http://purl.org/dc/dcmitype/StillImage" />
      </cc:Work>
    </rdf:RDF>
  </metadata>
  <defs
     id="defs12" />
  <sodipodi:namedview
     pagecolor="#ffffff"
     bordercolor="#666666"
     borderopacity="1"
     objecttolerance="10"
     gridtolerance="10"
     guidetolerance="10"
     inkscape:pageopacity="0"
     inkscape:pageshadow="2"
     inkscape:window-width="1920"
     inkscape:window-height="1011"
     id="namedview10"
     showgrid="true"
     inkscape:zoom="20.85965"
     inkscape:cx="8.4546568"
     inkscape:cy="16.818962"
     inkscape:window-x="1920"
     inkscape:window-y="32"
     inkscape:window-maximized="1"
     inkscape:current-layer="svg8">
    <inkscape:grid
       type="xygrid"
       id="grid821" />
  </sodipodi:namedview>
  <path
     inkscape:connector-curvature="0"
     id="path841"
     d="m 21,20 h 3 l -1,6 h -1 z"
     style="fill:#000000;stroke:#000000;stroke-width:2;stroke-linecap:butt;stroke-linejoin:round;stroke-opacity:1;fill-opacity:1;opacity:0.6;stroke-miterlimit:4;stroke-dasharray:none" />
  <path
     style="fill:#000000;fill-opacity:1;stroke:#000000;stroke-width:2;stroke-linecap:butt;stroke-linejoin:round;stroke-opacity:1;opacity:0.6;stroke-miterlimit:4;stroke-dasharray:none"
     d="m 26,20 h 3 l -1,6 h -1 z"
     id="path843"
     inkscape:connector-curvature="0" />
  <path
     id="path833"
     d="M 14 4 A 8.2196954 10.341016 24.817732 0 0 4 14 A 8.2196954 10.341016 24.817732 0 0 11 24 A 8.2196954 10.341016 24.817732 0 0 11.390625 23.976562 L 13 28 L 16 28 L 14.132812 23.330078 A 8.2196954 10.341016 24.817732 0 0 21 14 A 8.2196954 10.341016 24.817732 0 0 14 4 z M 13.550781 7 A 5.3565196 7.1875029 19.896797 0 1 18 14 A 5.3565196 7.1875029 19.896797 0 1 11.449219 21 A 5.3565196 7.1875029 19.896797 0 1 7 14 A 5.3565196 7.1875029 19.896797 0 1 13.550781 7 z "
     style="opacity:0.6;fill:#000000;fill-opacity:1;fill-rule:evenodd;stroke:#000000;stroke-width:2;stroke-linecap:butt;stroke-linejoin:round;stroke-miterlimit:4;stroke-dasharray:none;stroke-opacity:1" />
  <path
     style="opacity:1;fill:#ffffff;fill-opacity:1;fill-rule:evenodd;stroke:none;stroke-width:2;stroke-linecap:butt;stroke-linejoin:round;stroke-miterlimit:4;stroke-dasharray:none;stroke-opacity:1"
     d="M 14 4 A 8.2196954 10.341016 24.817732 0 0 4 14 A 8.2196954 10.341016 24.817732 0 0 11 24 A 8.2196954 10.341016 24.817732 0 0 11.390625 23.976562 L 13 28 L 16 28 L 14.132812 23.330078 A 8.2196954 10.341016 24.817732 0 0 21 14 A 8.2196954 10.341016 24.817732 0 0 14 4 z M 13.550781 7 A 5.3565196 7.1875029 19.896797 0 1 18 14 A 5.3565196 7.1875029 19.896797 0 1 11.449219 21 A 5.3565196 7.1875029 19.896797 0 1 7 14 A 5.3565196 7.1875029 19.896797 0 1 13.550781 7 z "
     id="path823" />
  <path
     style="fill:#aee3f8;stroke:none;stroke-width:1px;stroke-linecap:butt;stroke-linejoin:miter;stroke-opacity:1;fill-opacity:1"
     d="m 21,20 h 3 l -1,6 h -1 z"
     id="path837"
     inkscape:connector-curvature="0" />
  <path
     inkscape:connector-curvature="0"
     id="path839"
     d="m 26,20 h 3 l -1,6 h -1 z"
     style="fill:#aee3f8;fill-opacity:1;stroke:none;stroke-width:1px;stroke-linecap:butt;stroke-linejoin:miter;stroke-opacity:1" />
</svg>

<svg xmlns="http://www.w3.org/2000/svg" height="32" width="32"><path d="M21 20h3l-1 6h-1zM26 20h3l-1 6h-1z" stroke="#000" stroke-width="2" stroke-linejoin="round" opacity=".6"/><path d="M14 4A8.22 10.341 24.818 004 14a8.22 10.341 24.818 007 10 8.22 10.341 24.818 00.39-.023L13 28h3l-1.867-4.67A8.22 10.341 24.818 0021 14a8.22 10.341 24.818 00-7-10zm-.45 3A5.357 7.188 19.897 0118 14a5.357 7.188 19.897 01-6.55 7A5.357 7.188 19.897 017 14a5.357 7.188 19.897 016.55-7z" opacity=".6" fill-rule="evenodd" stroke="#000" stroke-width="2" stroke-linejoin="round"/><path d="M14 4A8.22 10.341 24.818 004 14a8.22 10.341 24.818 007 10 8.22 10.341 24.818 00.39-.023L13 28h3l-1.867-4.67A8.22 10.341 24.818 0021 14a8.22 10.341 24.818 00-7-10zm-.45 3A5.357 7.188 19.897 0118 14a5.357 7.188 19.897 01-6.55 7A5.357 7.188 19.897 017 14a5.357 7.188 19.897 016.55-7z" fill="#fff" fill-rule="evenodd"/><path d="M21 20h3l-1 6h-1zM26 20h3l-1 6h-1z" fill="#aee3f8"/></svg>
